icons/svgs/cake-candles-outline.svg

<svg width="24" height="24" viewBox="0 0 24 24" fill="none" xmlns="http://www.w3.org/2000/svg">
<path d="M6.60938 2.23438C6.6875 2.11719 6.84375 2 7 2C7.15625 2 7.27344 2.11719 7.35156 2.23438L8.32812 3.875C8.48438 4.14844 8.5625 4.42188 8.5625 4.73438V4.8125C8.5625 5.71094 7.85938 6.375 7 6.375C6.10156 6.375 5.4375 5.71094 5.4375 4.8125V4.73438C5.4375 4.42188 5.51562 4.14844 5.63281 3.875L6.60938 2.23438ZM11.6094 2.23438C11.6875 2.11719 11.8438 2 12 2C12.1562 2 12.2734 2.11719 12.3516 2.23438L13.3281 3.875C13.4844 4.14844 13.5625 4.42188 13.5625 4.73438V4.8125C13.5625 5.71094 12.8594 6.375 12 6.375C11.1016 6.375 10.4375 5.71094 10.4375 4.8125V4.73438C10.4375 4.42188 10.5156 4.14844 10.6328 3.875L11.6094 2.23438ZM15.6328 3.875L16.6094 2.23438C16.6875 2.11719 16.8438 2 17 2C17.1562 2 17.2734 2.11719 17.3516 2.23438L18.3281 3.875C18.4844 4.14844 18.5625 4.42188 18.5625 4.73438V4.8125C18.5625 5.71094 17.8594 6.375 17 6.375C16.1016 6.375 15.4375 5.71094 15.4375 4.8125V4.73438C15.4375 4.42188 15.5156 4.14844 15.6328 3.875ZM7.9375 8.5625V10.75H11.0625V8.5625C11.0625 8.05469 11.4531 7.625 12 7.625C12.5078 7.625 12.9375 8.05469 12.9375 8.5625V10.75H16.0625V8.5625C16.0625 8.05469 16.4531 7.625 17 7.625C17.5078 7.625 17.9375 8.05469 17.9375 8.5625V10.75H18.25C19.6172 10.75 20.75 11.8828 20.75 13.25V20.75C20.75 21.4531 20.1641 22 19.5 22H4.5C3.79688 22 3.25 21.4531 3.25 20.75V13.25C3.25 11.8828 4.34375 10.75 5.75 10.75H6.0625V8.5625C6.0625 8.05469 6.45312 7.625 7 7.625C7.50781 7.625 7.9375 8.05469 7.9375 8.5625ZM5.75 12.625H5.71094C5.39844 12.625 5.08594 12.9375 5.08594 13.25V15.6328C5.32031 15.5547 5.51562 15.4375 5.71094 15.3203C5.82812 15.2422 5.94531 15.125 6.0625 15.0078C6.33594 14.7734 6.60938 14.5 7 14.5C7.35156 14.5 7.625 14.7734 7.89844 15.0078C8.01562 15.125 8.13281 15.2422 8.25 15.3203C8.60156 15.5547 9.07031 15.75 9.5 15.75C9.92969 15.75 10.3594 15.5547 10.7109 15.3203C10.8281 15.2422 10.9453 15.125 11.0625 15.0078C11.3359 14.7734 11.6094 14.5 11.9609 14.5C12.3516 14.5 12.625 14.7734 12.8984 15.0078C13.0156 15.125 13.1328 15.2422 13.25 15.3203C13.6016 15.5547 14.0703 15.75 14.5 15.75C14.9297 15.75 15.3594 15.5547 15.7109 15.3203C15.8281 15.2422 15.9453 15.125 16.0625 15.0078C16.3359 14.7734 16.6094 14.5 16.9609 14.5C17.3516 14.5 17.625 14.7734 17.8984 15.0078C18.0156 15.125 18.1328 15.2422 18.25 15.3203C18.4453 15.4375 18.6406 15.5547 18.875 15.6328V13.25C18.875 12.9375 18.5625 12.625 18.25 12.625H5.75ZM18.875 17.5859C18.1719 17.4688 17.5469 17.1172 17 16.7266C16.2578 17.2734 15.3984 17.625 14.5 17.625C13.5625 17.625 12.7031 17.2734 12 16.7266C11.2578 17.2734 10.3984 17.625 9.5 17.625C8.5625 17.625 7.70312 17.2734 7 16.7266C6.41406 17.1172 5.78906 17.4688 5.125 17.5859V20.125H18.875V17.5859Z" fill="black"/>
</svg>

<svg xmlns="http://www.w3.org/2000/svg" width="24" height="24" fill="currentColor" class="icon-cake-candles-outline" viewBox="0 0 24 24">
  <mask id="a" width="18" height="20" x="3" y="2" maskUnits="userSpaceOnUse" style="mask-type:alpha">
    <path d="M6.61 2.234C6.686 2.117 6.843 2 7 2s.273.117.352.234l.976 1.641c.156.273.235.547.235.86v.077c0 .899-.704 1.563-1.563 1.563-.898 0-1.562-.664-1.562-1.562v-.079c0-.312.078-.586.195-.859zm5 0c.078-.117.234-.234.39-.234s.273.117.352.234l.976 1.641c.156.273.235.547.235.86v.077c0 .899-.704 1.563-1.563 1.563-.898 0-1.562-.664-1.562-1.562v-.079c0-.312.078-.586.195-.859zm4.023 1.641.976-1.64C16.687 2.116 16.844 2 17 2s.273.117.352.234l.976 1.641c.156.273.235.547.235.86v.077c0 .899-.704 1.563-1.563 1.563-.898 0-1.562-.664-1.562-1.562v-.079c0-.312.078-.586.195-.859M7.938 8.563v2.187h3.125V8.563c0-.508.39-.938.937-.938a.95.95 0 0 1 .938.938v2.187h3.124V8.563c0-.508.391-.938.938-.938a.95.95 0 0 1 .938.938v2.187h.312c1.367 0 2.5 1.133 2.5 2.5v7.5c0 .703-.586 1.25-1.25 1.25h-15c-.703 0-1.25-.547-1.25-1.25v-7.5c0-1.367 1.094-2.5 2.5-2.5h.313V8.563c0-.508.39-.938.937-.938a.95.95 0 0 1 .938.938M5.75 12.625h-.04c-.312 0-.624.313-.624.625v2.383c.234-.078.43-.195.625-.313.117-.078.234-.195.351-.312.274-.235.547-.508.938-.508.352 0 .625.273.898.508.118.117.235.234.352.312.352.235.82.43 1.25.43s.86-.195 1.21-.43c.118-.078.235-.195.352-.312.274-.235.547-.508.899-.508.39 0 .664.273.937.508.118.117.235.234.352.312.352.235.82.43 1.25.43s.86-.195 1.21-.43c.118-.078.235-.195.352-.312.274-.235.547-.508.899-.508.39 0 .664.273.937.508.118.117.235.234.352.312.195.117.39.235.625.313V13.25c0-.312-.312-.625-.625-.625zm13.125 4.96c-.703-.116-1.328-.468-1.875-.858-.742.546-1.602.898-2.5.898-.937 0-1.797-.352-2.5-.898-.742.546-1.602.898-2.5.898-.937 0-1.797-.352-2.5-.898-.586.39-1.21.742-1.875.859v2.539h13.75z"/>
  </mask>
  <g mask="url(#a)">
    <path d="M0 0h24v24H0z"/>
  </g>
</svg>
